X: 38
T:Curlew, The
M:C|
C:Josephine Keegan
R:reel
D:Altan: Horse with a Heart
Z:id:hn-reel-367
K:Bdor
fB~B2 Bcde|fece ~a3e|(3fga ed cA~A2|^GAce a^gba|
fB~B2 Bcde|fece ~a3f|~=g3e ~f3e|dBBA FB~B2:|
|:(3Bcd cd BF~F2|DF~F2 Bcdf|ecBc AE~E2|CEAB cedc|
(3Bcd cd BF~F2|DF~F2 Bcdf|ecBA fcec|dcBA FB~B2:|
<end>
<start>
